public/img/monitop-mission.svg

<svg width="733" height="766" fill="none" xmlns="http://www.w3.org/2000/svg"><path d="M146.134 523.785s-78.598-61.753-42.781-142.343c35.817-80.591 100.646 42.415 145.835-71.336 45.189-113.75 55.311-200.83 175.61-164.909 120.298 35.92 70.985 130.188 133.946 139.655 62.96 9.468 112.706 43.607 83.853 117.427-28.852 73.82 24.842 92.979-13.344 146.93-38.187 53.951-483.119-25.424-483.119-25.424z" fill="#F6F4FF"/><path d="M349.556 309.839l-15.599 200.356s-1.634 12.145 6.729 12.167c13.75.035 68.439 0 68.439 0s-10.349-2.529-10.223-8.217c.147-6.705 18.231-206.202 18.231-206.202l-67.577 1.896z" fill="#3D2B93"/><path d="M413.701 518.266c-2.703.009-54.906.185-68.288 0-5.832-.078-6.855-5.577-6.903-9.136-.018-.992.041-1.985.177-2.967l.405-5.182 1.034-13.206.912-11.667 1.173-14.993.988-12.655 11.077-141.652 67.536-1.885s-7.612 83.069-12.996 143.537a12018.26 12018.26 0 00-1.701 19.228 10056.664 10056.664 0 00-1.85 21.253c-.209 2.445-.402 4.717-.577 6.798-.687 8.155-1.089 13.362-1.095 14.352a8.894 8.894 0 00.132 1.614c1.108 6.353 8.961 6.561 9.976 6.561z" fill="#917AFF"/><path d="M509.986 201.229H185.004l38.059 164.573 5.211 22.539L246 464.994h329.321l-65.335-263.765z" fill="#917AFF"/><path d="M184.674 201.229l-5.289 1.895 59.424 267.91 7.033-5.731-61.168-264.074zm54.614 269.805h326.998l9.03-6.04H246.295l-7.007 6.04zm114.196 51.343h71.137v-4.026h-71.137v4.026zm53.347-51.343l-.368 2.747-67.025 14.368.92-11.603.439-5.512h66.034z" fill="#3D2B93"/><path d="M413.388 518.268c-2.692.009-54.679.181-68.007 0-5.808-.076-6.826-5.462-6.874-8.948l65.905-13.117c-.684 7.987-1.085 13.088-1.09 14.058-.005.53.039 1.059.131 1.581 1.104 6.223 8.924 6.426 9.935 6.426z" fill="#573CDA"/><path opacity=".2" d="M386.246 413.681L245.68 464.994l-12.004-51.344 152.57.031z" fill="#573CDA"/><path d="M509.746 201.229H185.004l48.943 212.354 328.27.067-52.471-212.421z" fill="#573CDA"/><path d="M419.775 440.329c-.937-5.282-5.604-9.564-10.424-9.564-4.82 0-7.968 4.282-7.031 9.564.937 5.282 5.604 9.564 10.424 9.564 4.82 0 7.967-4.282 7.031-9.564z" fill="#3D2B93"/><path d="M547.238 404.589H242.772l-34.48-147.651-2.643-11.324-2.256-9.657-5.288-22.647h300.077l5.808 22.647 2.477 9.657 2.903 11.324 37.868 147.651z" fill="#fff"/><path d="M498.37 213.31H198.105l5.291 22.148h300.785l-5.811-22.148z" fill="#917AFF"/><path d="M212.981 220.357c-1.254 0-2.017 1.353-1.704 3.021.313 1.668 1.582 3.02 2.836 3.02 1.254 0 2.017-1.352 1.704-3.02-.313-1.668-1.582-3.021-2.836-3.021zm8.777 0c-1.505 0-2.42 1.353-2.045 3.021s1.899 3.02 3.403 3.02 2.42-1.352 2.045-3.02-1.899-3.021-3.403-3.021zm12.766 3.021c-.375-1.668-1.898-3.021-3.403-3.021-1.504 0-2.42 1.353-2.045 3.021s1.899 3.02 3.403 3.02c1.505 0 2.42-1.352 2.045-3.02z" fill="#E9F3FE"/><path d="M295.072 276.734c-1.622 1.459-4.903 4.195-6.213 5.358l3.32 44.064-34.17-16.211-6.213 5.358a46.857 46.857 0 00-.632 18.578c1.032 6.171 3.289 12.037 6.62 17.212 3.331 5.174 7.661 9.538 12.701 12.801 5.041 3.263 10.678 5.352 16.537 6.127 5.86.775 11.807.219 17.449-1.631 5.641-1.85 10.848-4.951 15.274-9.099 4.426-4.148 7.97-9.248 10.398-14.96a46.51 46.51 0 003.684-18.175c0-24.413-15.753-49.422-38.755-49.422z" fill="#3D2B93"/><path d="M281.385 272.707c-8.535.743-16.641 4.361-23.184 10.348-6.542 5.987-11.192 14.043-13.298 23.038l39.75 10.911 6.115-5.386-9.383-38.911z" fill="#1BC082"/><path d="M298.266 276.734c-1.105 0-2.199.047-3.282.14l3.282 44.152-39.927-10.875c-2.108 8.947-1.565 18.378 1.554 26.976 3.118 8.599 8.655 15.935 15.838 20.984 7.184 5.049 15.654 7.559 24.228 7.178 8.573-.38 16.822-3.631 23.595-9.299 6.772-5.668 11.729-13.47 14.179-22.315a47.482 47.482 0 00-.517-27.022c-2.785-8.73-8.036-16.306-15.019-21.67-6.983-5.364-15.35-8.248-23.931-8.249z" fill="#573CDA"/><path d="M287.539 267.674c-8.441.742-16.459 4.36-22.929 10.347-6.47 5.987-11.069 14.043-13.152 23.039l39.312 10.91-3.231-44.296z" fill="#23C89A"/><path d="M282.899 284.789a.515.515 0 01-.305-.102.597.597 0 01-.202-.27.664.664 0 01-.031-.348.623.623 0 01.15-.309l24.717-27.16h158.969c.145 0 .285.064.387.177a.63.63 0 01.161.425c0 .16-.058.313-.161.426a.523.523 0 01-.387.177H307.682l-24.396 26.807a.54.54 0 01-.178.131.505.505 0 01-.209.046zm48.664 49.33a.516.516 0 01-.303-.102.597.597 0 01-.202-.27.66.66 0 01-.031-.347.617.617 0 01.15-.307l26.545-29.176h116.894a.52.52 0 01.386.176c.103.112.16.265.16.425a.632.632 0 01-.16.425.523.523 0 01-.386.176H358.175l-26.225 28.823a.513.513 0 01-.387.177z" fill="#163560"/><path d="M469.548 252.573H307.165l-3.291-5.034h162.382l3.292 5.034zm4.683 48.323H356.778l-3.293-6.04h117.453l3.293 6.04zm-35.57 97.653h-42.955l-20.694-79.532h42.954l20.695 79.532zm54.29 0h-42.955l-20.694-79.532h42.955l20.694 79.532z" fill="#917AFF"/><path d="M85.785 521.371h158.683l33.2-145.976H118.985l-33.2 145.976z" fill="#8770F9"/><path d="M311.365 521.371H151.908l-33.361-145.976h159.457l33.361 145.976z" fill="#917AFF"/><path d="M300.133 513.317H159.254l-29.475-129.869h140.88l29.474 129.869z" fill="#fff"/><path d="M85.785 521.371l33.703-7.047 32.754 7.047H85.785z" fill="#7867C8"/><path d="M147.089 360.293c-3.776.005-7.401 1.59-10.108 4.42-2.707 2.829-4.283 6.68-4.395 10.738h5.805a9.826 9.826 0 011.666-5.075c1.006-1.48 2.393-2.61 3.99-3.251a8.135 8.135 0 014.995-.351c1.661.411 3.174 1.337 4.35 2.664a9.637 9.637 0 012.267 4.798 10.02 10.02 0 01-.565 5.348c-.671 1.684-1.788 3.12-3.211 4.129a8.278 8.278 0 01-4.794 1.547c-.381 0-.759.081-1.111.238a2.89 2.89 0 00-.942.676c-.269.29-.483.634-.629 1.013a3.318 3.318 0 000 2.388c.146.379.36.723.629 1.013.27.289.59.519.942.676.352.157.73.238 1.111.238 3.849 0 7.541-1.644 10.262-4.571 2.722-2.926 4.251-6.895 4.251-11.034 0-4.138-1.529-8.107-4.251-11.034-2.721-2.926-6.413-4.57-10.262-4.57zm36.97.001c-3.898.005-7.64 1.59-10.434 4.42-2.795 2.829-4.422 6.68-4.537 10.738h5.993a9.617 9.617 0 011.719-5.075 9.044 9.044 0 014.119-3.251 8.65 8.65 0 015.156-.351 8.903 8.903 0 014.49 2.664 9.505 9.505 0 012.34 4.798 9.732 9.732 0 01-.583 5.348 9.284 9.284 0 01-3.314 4.129 8.735 8.735 0 01-4.949 1.547c-.394 0-.784.081-1.147.238a2.966 2.966 0 00-.972.676c-.278.29-.499.634-.65 1.013a3.24 3.24 0 000 2.388c.151.379.372.723.65 1.013.278.289.608.519.972.676.363.157.753.238 1.147.238 3.973 0 7.784-1.644 10.593-4.571 2.81-2.926 4.388-6.895 4.388-11.034 0-4.138-1.578-8.107-4.388-11.034-2.809-2.926-6.62-4.57-10.593-4.57zm37.439 0c-3.897.005-7.639 1.59-10.434 4.419-2.794 2.83-4.421 6.681-4.537 10.739h5.993a9.613 9.613 0 011.72-5.076 9.038 9.038 0 014.118-3.25 8.652 8.652 0 015.156-.351 8.908 8.908 0 014.49 2.663 9.508 9.508 0 012.34 4.799 9.71 9.71 0 01-.583 5.347 9.282 9.282 0 01-3.314 4.13 8.733 8.733 0 01-4.949 1.547c-.393 0-.783.08-1.147.237a3.006 3.006 0 00-.972.677c-.278.29-.499.634-.649 1.012a3.23 3.23 0 00.649 3.401c.279.29.609.52.972.677.364.157.754.237 1.147.237 3.973 0 7.784-1.644 10.594-4.57 2.809-2.926 4.388-6.895 4.388-11.034 0-4.138-1.579-8.107-4.388-11.034-2.81-2.926-6.621-4.57-10.594-4.57zm36.976 0c-3.776.005-7.401 1.59-10.108 4.42-2.707 2.829-4.284 6.68-4.395 10.738h5.805a9.817 9.817 0 011.666-5.075c1.005-1.48 2.393-2.61 3.99-3.251a8.135 8.135 0 014.995-.351c1.661.411 3.173 1.337 4.35 2.664a9.628 9.628 0 012.266 4.798 10.01 10.01 0 01-.565 5.348c-.671 1.684-1.787 3.12-3.21 4.129a8.278 8.278 0 01-4.794 1.547c-.382 0-.759.081-1.111.238a2.89 2.89 0 00-.942.676c-.269.29-.483.634-.629 1.013a3.318 3.318 0 000 2.388c.146.379.36.723.629 1.013.27.289.59.519.942.676.352.157.729.238 1.111.238 3.849 0 7.54-1.644 10.262-4.571 2.722-2.926 4.251-6.895 4.251-11.034 0-4.138-1.529-8.107-4.251-11.034-2.722-2.926-6.413-4.57-10.262-4.57z" fill="#2FB590"/><path d="M182.192 429.758h-31.699l-5.741-23.155h31.699l5.741 23.155zm44.932 0h-31.699l-5.741-23.154h31.699l5.741 23.154zm43.055 0H238.48l-5.742-23.155h31.699l5.742 23.155zm-79.561 31.209h-31.699l-5.741-22.148h31.699l5.741 22.148zm44.928 0h-31.699l-5.742-22.149h31.7l5.741 22.149zm43.055 0h-31.699l-5.742-22.148h31.699l5.742 22.148zm-79.559 33.222h-31.699l-5.741-23.155h31.699l5.741 23.155zm44.926 0h-31.699l-5.742-23.155h31.699l5.742 23.155zm43.058 0h-31.699l-5.741-23.155h31.699l5.741 23.155z" fill="#573CDA"/><path d="M119.037 375.395l.445 139.035-33.697 6.941 33.252-145.976z" fill="#917AFF"/></svg>

<svg width="733" height="766" viewBox="0 0 733 766" fill="none" xmlns="http://www.w3.org/2000/svg">
<path d="M146.134 523.785C146.134 523.785 67.536 462.032 103.353 381.442C139.17 300.851 203.999 423.857 249.188 310.106C294.377 196.356 304.499 109.276 424.798 145.197C545.096 181.117 495.783 275.385 558.744 284.852C621.704 294.32 671.45 328.459 642.597 402.279C613.745 476.099 667.439 495.258 629.253 549.209C591.066 603.16 146.134 523.785 146.134 523.785Z" fill="#F6F4FF"/>
<path d="M349.556 309.839L333.957 510.195C333.957 510.195 332.323 522.34 340.686 522.362C354.436 522.397 409.125 522.362 409.125 522.362C409.125 522.362 398.776 519.833 398.902 514.145C399.049 507.44 417.133 307.943 417.133 307.943L349.556 309.839Z" fill="#3D2B93"/>
<path d="M413.701 518.266C410.998 518.275 358.795 518.451 345.413 518.266C339.581 518.188 338.558 512.689 338.51 509.13C338.492 508.138 338.551 507.145 338.687 506.163L339.092 500.981L340.126 487.775L341.038 476.108L342.211 461.115L343.199 448.46L354.276 306.808L421.812 304.923C421.812 304.923 414.2 387.992 408.816 448.46C408.215 455.198 407.643 461.658 407.115 467.688C406.943 469.613 406.777 471.493 406.618 473.328C406.119 479.049 405.662 484.303 405.265 488.941C405.056 491.386 404.863 493.658 404.688 495.739C404.001 503.894 403.599 509.101 403.593 510.091C403.588 510.633 403.632 511.173 403.725 511.705C404.833 518.058 412.686 518.266 413.701 518.266Z" fill="#917AFF"/>
<path d="M509.986 201.229H185.004L223.063 365.802L228.274 388.341L246 464.994H575.321L509.986 201.229Z" fill="#917AFF"/>
<path d="M184.674 201.229L179.385 203.124L238.809 471.034L245.842 465.303L184.674 201.229Z" fill="#3D2B93"/>
<path d="M239.288 471.034H566.286L575.316 464.994H246.295L239.288 471.034Z" fill="#3D2B93"/>
<path d="M353.484 522.377H424.621V518.351H353.484V522.377Z" fill="#3D2B93"/>
<path d="M406.831 471.034L406.463 473.781L339.438 488.149L340.358 476.546L340.797 471.034H406.831Z" fill="#3D2B93"/>
<path d="M413.388 518.268C410.696 518.277 358.709 518.449 345.381 518.268C339.573 518.192 338.555 512.806 338.507 509.32L404.412 496.203C403.728 504.19 403.327 509.291 403.322 510.261C403.317 510.791 403.361 511.32 403.453 511.842C404.557 518.065 412.377 518.268 413.388 518.268Z" fill="#573CDA"/>
<path opacity="0.2" d="M386.246 413.681L245.68 464.994L233.676 413.65L386.246 413.681Z" fill="#573CDA"/>
<path d="M509.746 201.229H185.004L233.947 413.583L562.217 413.65L509.746 201.229Z" fill="#573CDA"/>
<path d="M419.775 440.329C418.838 435.047 414.171 430.765 409.351 430.765C404.531 430.765 401.383 435.047 402.32 440.329C403.257 445.611 407.924 449.893 412.744 449.893C417.564 449.893 420.711 445.611 419.775 440.329Z" fill="#3D2B93"/>
<path d="M547.238 404.589H242.772L208.292 256.938L205.649 245.614L203.393 235.957L198.105 213.31H498.182L503.99 235.957L506.467 245.614L509.37 256.938L547.238 404.589Z" fill="white"/>
<path d="M498.37 213.31H198.105L203.396 235.458H504.181L498.37 213.31Z" fill="#917AFF"/>
<path d="M212.981 220.357C211.727 220.357 210.964 221.71 211.277 223.378C211.59 225.046 212.859 226.398 214.113 226.398C215.367 226.398 216.13 225.046 215.817 223.378C215.504 221.71 214.235 220.357 212.981 220.357Z" fill="#E9F3FE"/>
<path d="M221.758 220.357C220.253 220.357 219.338 221.71 219.713 223.378C220.088 225.046 221.612 226.398 223.116 226.398C224.62 226.398 225.536 225.046 225.161 223.378C224.786 221.71 223.262 220.357 221.758 220.357Z" fill="#E9F3FE"/>
<path d="M234.524 223.378C234.149 221.71 232.626 220.357 231.121 220.357C229.617 220.357 228.701 221.71 229.076 223.378C229.451 225.046 230.975 226.398 232.479 226.398C233.984 226.398 234.899 225.046 234.524 223.378Z" fill="#E9F3FE"/>
<path d="M295.072 276.734C293.45 278.193 290.169 280.929 288.859 282.092L292.179 326.156L258.009 309.945L251.796 315.303C250.347 321.378 250.132 327.711 251.164 333.881C252.196 340.052 254.453 345.918 257.784 351.093C261.115 356.267 265.445 360.631 270.485 363.894C275.526 367.157 281.163 369.246 287.022 370.021C292.882 370.796 298.829 370.24 304.471 368.39C310.112 366.54 315.319 363.439 319.745 359.291C324.171 355.143 327.715 350.043 330.143 344.331C332.571 338.618 333.827 332.423 333.827 326.156C333.827 301.743 318.074 276.734 295.072 276.734Z" fill="#3D2B93"/>
<path d="M281.385 272.707C272.85 273.45 264.744 277.068 258.201 283.055C251.659 289.042 247.009 297.098 244.903 306.093L284.653 317.004L290.768 311.618L281.385 272.707Z" fill="#1BC082"/>
<path d="M298.266 276.734C297.161 276.734 296.067 276.781 294.984 276.874L298.266 321.026L258.339 310.151C256.231 319.098 256.774 328.529 259.893 337.127C263.011 345.726 268.548 353.062 275.731 358.111C282.915 363.16 291.385 365.67 299.959 365.289C308.532 364.909 316.781 361.658 323.554 355.99C330.326 350.322 335.283 342.52 337.733 333.675C340.182 324.83 340.002 315.382 337.216 306.653C334.431 297.923 329.18 290.347 322.197 284.983C315.214 279.619 306.847 276.735 298.266 276.734Z" fill="#573CDA"/>
<path d="M287.539 267.674C279.098 268.416 271.08 272.034 264.61 278.021C258.14 284.008 253.541 292.064 251.458 301.06L290.77 311.97L287.539 267.674Z" fill="#23C89A"/>
<path d="M282.899 284.789C282.79 284.789 282.684 284.753 282.594 284.687C282.504 284.621 282.434 284.527 282.392 284.417C282.351 284.307 282.34 284.186 282.361 284.069C282.382 283.952 282.434 283.845 282.511 283.76L307.228 256.6H466.197C466.342 256.6 466.482 256.664 466.584 256.777C466.687 256.889 466.745 257.043 466.745 257.202C466.745 257.362 466.687 257.515 466.584 257.628C466.482 257.741 466.342 257.805 466.197 257.805H307.682L283.286 284.612C283.235 284.668 283.175 284.713 283.108 284.743C283.042 284.773 282.971 284.789 282.899 284.789Z" fill="#163560"/>
<path d="M331.563 334.119C331.455 334.118 331.349 334.083 331.26 334.017C331.17 333.951 331.1 333.857 331.058 333.747C331.017 333.638 331.006 333.517 331.027 333.4C331.048 333.284 331.1 333.177 331.177 333.093L357.722 303.917H474.616C474.761 303.917 474.9 303.98 475.002 304.093C475.105 304.205 475.162 304.358 475.162 304.518C475.162 304.677 475.105 304.83 475.002 304.943C474.9 305.055 474.761 305.119 474.616 305.119H358.175L331.95 333.942C331.899 333.998 331.839 334.043 331.773 334.073C331.706 334.103 331.635 334.119 331.563 334.119Z" fill="#163560"/>
<path d="M469.548 252.573H307.165L303.874 247.539H466.256L469.548 252.573Z" fill="#917AFF"/>
<path d="M474.231 300.896H356.778L353.485 294.856H470.938L474.231 300.896Z" fill="#917AFF"/>
<path d="M438.661 398.549H395.706L375.012 319.017H417.966L438.661 398.549Z" fill="#917AFF"/>
<path d="M492.951 398.549H449.996L429.302 319.017H472.257L492.951 398.549Z" fill="#917AFF"/>
<path d="M85.7852 521.371H244.468L277.668 375.395H118.985L85.7852 521.371Z" fill="#8770F9"/>
<path d="M311.365 521.371H151.908L118.547 375.395H278.004L311.365 521.371Z" fill="#917AFF"/>
<path d="M300.133 513.317H159.254L129.779 383.448H270.659L300.133 513.317Z" fill="white"/>
<path d="M85.7852 521.371L119.488 514.324L152.242 521.371H85.7852Z" fill="#7867C8"/>
<path d="M147.089 360.293C143.313 360.298 139.688 361.883 136.981 364.713C134.274 367.542 132.698 371.393 132.586 375.451H138.391C138.473 373.62 139.052 371.856 140.057 370.376C141.063 368.896 142.45 367.766 144.047 367.125C145.644 366.485 147.381 366.363 149.042 366.774C150.703 367.185 152.216 368.111 153.392 369.438C154.568 370.764 155.356 372.433 155.659 374.236C155.961 376.04 155.765 377.899 155.094 379.584C154.423 381.268 153.306 382.704 151.883 383.713C150.46 384.722 148.793 385.26 147.089 385.26C146.708 385.26 146.33 385.341 145.978 385.498C145.626 385.654 145.306 385.884 145.036 386.174C144.767 386.464 144.553 386.808 144.407 387.187C144.261 387.565 144.186 387.971 144.186 388.381C144.186 388.791 144.261 389.196 144.407 389.575C144.553 389.954 144.767 390.298 145.036 390.588C145.306 390.877 145.626 391.107 145.978 391.264C146.33 391.421 146.708 391.502 147.089 391.502C150.938 391.502 154.63 389.858 157.351 386.931C160.073 384.005 161.602 380.036 161.602 375.897C161.602 371.759 160.073 367.79 157.351 364.863C154.63 361.937 150.938 360.293 147.089 360.293Z" fill="#2FB590"/>
<path d="M184.059 360.294C180.161 360.299 176.419 361.884 173.625 364.714C170.83 367.543 169.203 371.394 169.088 375.452H175.081C175.165 373.621 175.763 371.857 176.8 370.377C177.838 368.897 179.27 367.767 180.919 367.126C182.567 366.486 184.36 366.364 186.075 366.775C187.79 367.186 189.351 368.112 190.565 369.439C191.779 370.765 192.593 372.434 192.905 374.237C193.217 376.041 193.014 377.9 192.322 379.585C191.629 381.269 190.477 382.705 189.008 383.714C187.539 384.723 185.818 385.261 184.059 385.261C183.665 385.261 183.275 385.342 182.912 385.499C182.548 385.655 182.218 385.885 181.94 386.175C181.662 386.465 181.441 386.809 181.29 387.188C181.14 387.566 181.062 387.972 181.062 388.382C181.062 388.792 181.14 389.197 181.29 389.576C181.441 389.955 181.662 390.299 181.94 390.589C182.218 390.878 182.548 391.108 182.912 391.265C183.275 391.422 183.665 391.503 184.059 391.503C188.032 391.503 191.843 389.859 194.652 386.932C197.462 384.006 199.04 380.037 199.04 375.898C199.04 371.76 197.462 367.791 194.652 364.864C191.843 361.938 188.032 360.294 184.059 360.294Z" fill="#2FB590"/>
<path d="M221.498 360.294C217.601 360.299 213.859 361.884 211.064 364.713C208.27 367.543 206.643 371.394 206.527 375.452H212.52C212.604 373.621 213.202 371.856 214.24 370.376C215.278 368.896 216.71 367.766 218.358 367.126C220.007 366.486 221.8 366.364 223.514 366.775C225.229 367.186 226.79 368.112 228.004 369.438C229.218 370.765 230.032 372.433 230.344 374.237C230.657 376.04 230.454 377.9 229.761 379.584C229.068 381.269 227.916 382.705 226.447 383.714C224.978 384.723 223.258 385.261 221.498 385.261C221.105 385.261 220.715 385.341 220.351 385.498C219.988 385.655 219.658 385.885 219.379 386.175C219.101 386.465 218.88 386.809 218.73 387.187C218.579 387.566 218.502 387.972 218.502 388.382C218.502 388.791 218.579 389.197 218.73 389.576C218.88 389.955 219.101 390.299 219.379 390.588C219.658 390.878 219.988 391.108 220.351 391.265C220.715 391.422 221.105 391.502 221.498 391.502C225.471 391.502 229.282 389.858 232.092 386.932C234.901 384.006 236.48 380.037 236.48 375.898C236.48 371.76 234.901 367.791 232.092 364.864C229.282 361.938 225.471 360.294 221.498 360.294Z" fill="#2FB590"/>
<path d="M258.474 360.294C254.698 360.299 251.073 361.884 248.366 364.714C245.659 367.543 244.082 371.394 243.971 375.452H249.776C249.857 373.621 250.437 371.857 251.442 370.377C252.447 368.897 253.835 367.767 255.432 367.126C257.029 366.486 258.766 366.364 260.427 366.775C262.088 367.186 263.6 368.112 264.777 369.439C265.953 370.765 266.741 372.434 267.043 374.237C267.346 376.041 267.149 377.9 266.478 379.585C265.807 381.269 264.691 382.705 263.268 383.714C261.845 384.723 260.178 385.261 258.474 385.261C258.092 385.261 257.715 385.342 257.363 385.499C257.011 385.655 256.691 385.885 256.421 386.175C256.152 386.465 255.938 386.809 255.792 387.188C255.646 387.566 255.571 387.972 255.571 388.382C255.571 388.792 255.646 389.197 255.792 389.576C255.938 389.955 256.152 390.299 256.421 390.589C256.691 390.878 257.011 391.108 257.363 391.265C257.715 391.422 258.092 391.503 258.474 391.503C262.323 391.503 266.014 389.859 268.736 386.932C271.458 384.006 272.987 380.037 272.987 375.898C272.987 371.76 271.458 367.791 268.736 364.864C266.014 361.938 262.323 360.294 258.474 360.294Z" fill="#2FB590"/>
<path d="M182.192 429.758H150.493L144.752 406.603H176.451L182.192 429.758Z" fill="#573CDA"/>
<path d="M227.124 429.758H195.425L189.684 406.604H221.383L227.124 429.758Z" fill="#573CDA"/>
<path d="M270.179 429.758H238.48L232.738 406.603H264.437L270.179 429.758Z" fill="#573CDA"/>
<path d="M190.618 460.967H158.919L153.178 438.819H184.877L190.618 460.967Z" fill="#573CDA"/>
<path d="M235.546 460.967H203.847L198.105 438.818H229.805L235.546 460.967Z" fill="#573CDA"/>
<path d="M278.601 460.967H246.902L241.16 438.819H272.859L278.601 460.967Z" fill="#573CDA"/>
<path d="M199.042 494.189H167.343L161.602 471.034H193.301L199.042 494.189Z" fill="#573CDA"/>
<path d="M243.968 494.189H212.269L206.527 471.034H238.226L243.968 494.189Z" fill="#573CDA"/>
<path d="M287.026 494.189H255.327L249.586 471.034H281.285L287.026 494.189Z" fill="#573CDA"/>
<path d="M119.037 375.395L119.482 514.43L85.7852 521.371L119.037 375.395Z" fill="#917AFF"/>
</svg>
